X: 45
T:Scholar, The
M:C|
L:1/8
R:Reel
K:D
dfaf gfeg|fdAG FGA=c|BG~G2 EFGg|fdec dcBA|!
dfaf gfeg|fdAG FGA=c|BG~G2 Efag|1fgef dABc:|2fgef defg|!
|:~a2af dfaf|dfaf bagf|~g2ge =cege|=cege agfg|!
~a2af dfaf|dfaf bagf|g2gf gbag|1 fgef defg:|2fgef dABc|]!
